X:285
T:Mr. Hornby's Minuet
A:Lancaster
C:Andy Hornby
M:6/8
N:Sept. '96
O:England
Q:1/8=280
R:Minuet
Z:Richard Robinson 
%%Copyright:Andy Hornby
%%TUNEURL: http://www.leeds.ac.uk/music/Info/RRTuneBk/gettune/0000077a.html
%%ID:0000077a
K:E min
B|\
e>fe d2c|B3 E>FG|A>Bc B2A|B3 B^c^d|\
e>fe d>ed|B>AB EFG|A>Bc B<FG|(E3 E)zB||
e>fe d2c|B3 E>FG|A>Bc B2B|^d3 def|\
g>fe f>ed|e2B c>BA|B>AG A<FG|(E3 E)z||
G|\
F2D D>EF|G2E E>FG|A>GF FGA|(B3 B)zA/B/|\
c>dc cBA|B3 E>FG|A>Bc B<FG|(E3 E)zG|
F2D D/E/F/G/A|B2E EFG| A2B c2B|^d3 def|\
g>fe f>e^d|e2B c>BA|B>AG|A<FG|(E3 E)z|]
